build/images/icons/phone.svg

<svg width="21" height="21" viewBox="0 0 21 21" fill="none" xmlns="http://www.w3.org/2000/svg">
<path d="M16.2053 13.2304C15.5519 12.5853 14.7362 12.5853 14.087 13.2304C13.5917 13.7215 13.0965 14.2126 12.6095 14.712C12.4764 14.8494 12.364 14.8785 12.2017 14.7869C11.8812 14.6121 11.54 14.4706 11.232 14.2792C9.79616 13.3761 8.5934 12.2149 7.52797 10.9081C6.99942 10.2589 6.52914 9.56385 6.20035 8.78143C6.13377 8.62328 6.14625 8.51924 6.27527 8.39022C6.77052 7.91162 7.25329 7.42052 7.74022 6.92943C8.4186 6.24689 8.4186 5.44782 7.73606 4.76112C7.34901 4.36991 6.96197 3.98703 6.57492 3.59582C6.17538 3.19628 5.78001 2.79259 5.37632 2.39721C4.72291 1.76046 3.9072 1.76046 3.25795 2.40138C2.75854 2.89247 2.27993 3.39605 1.77219 3.87882C1.3019 4.32413 1.06468 4.86933 1.01474 5.50609C0.935664 6.54238 1.18953 7.5204 1.54745 8.47346C2.27993 10.4462 3.39529 12.1983 4.74788 13.8047C6.57492 15.9772 8.75571 17.696 11.3069 18.9363C12.4556 19.4939 13.6458 19.9226 14.9402 19.9934C15.8308 20.0433 16.6049 19.8186 17.225 19.1235C17.6495 18.6491 18.1281 18.2163 18.5776 17.7626C19.2435 17.0884 19.2476 16.2727 18.5859 15.6068C17.7952 14.8119 17.0003 14.0212 16.2053 13.2304Z" stroke="#EAC57E" stroke-width="1.7"/>
<path d="M15.4106 9.91346L16.9463 9.65126C16.7049 8.24041 16.039 6.96273 15.0277 5.94725C13.9581 4.87767 12.6055 4.20345 11.1156 3.99536L10.8992 5.53939C12.052 5.7017 13.1008 6.22193 13.929 7.05013C14.7114 7.83255 15.2233 8.82306 15.4106 9.91346Z" fill="#EAC57E"/>
<path d="M17.8119 3.23789C16.0389 1.46496 13.7957 0.34543 11.3194 0L11.103 1.54403C13.2422 1.84368 15.1816 2.81339 16.7131 4.34077C18.1656 5.79324 19.1187 7.6286 19.4641 9.64708L20.9998 9.38489C20.5961 7.04595 19.4932 4.92342 17.8119 3.23789Z" fill="#EAC57E"/>
</svg>

<svg width="21" height="21" fill="none" xmlns="http://www.w3.org/2000/svg"><path d="M16.205 13.23c-.653-.645-1.469-.645-2.118 0-.495.492-.99.983-1.477 1.482-.134.137-.246.167-.408.075-.32-.175-.662-.316-.97-.508-1.436-.903-2.639-2.064-3.704-3.37-.529-.65-.999-1.345-1.328-2.128-.066-.158-.054-.262.075-.39.496-.48.978-.97 1.465-1.462.679-.682.679-1.481-.004-2.168-.387-.391-.774-.774-1.161-1.165-.4-.4-.795-.803-1.199-1.199-.653-.637-1.469-.637-2.118.004-.5.491-.978.995-1.486 1.478-.47.445-.707.99-.757 1.627-.08 1.036.175 2.014.532 2.967.733 1.973 1.848 3.725 3.2 5.332a19.806 19.806 0 006.56 5.131c1.149.558 2.339.987 3.633 1.057.89.05 1.665-.174 2.285-.87.424-.474.903-.907 1.353-1.36.666-.675.67-1.49.008-2.156-.79-.795-1.586-1.586-2.38-2.377z" stroke="#EAC57E" stroke-width="1.7"/><path d="M15.41 9.913l1.536-.262a6.864 6.864 0 00-1.918-3.704 6.827 6.827 0 00-3.912-1.952l-.217 1.544a5.297 5.297 0 013.03 1.511 5.296 5.296 0 011.482 2.863zM17.812 3.238A11.324 11.324 0 0011.319 0l-.216 1.544c2.14.3 4.079 1.27 5.61 2.797a9.81 9.81 0 012.751 5.306L21 9.385a11.407 11.407 0 00-3.188-6.147z" fill="#EAC57E"/></svg>
